X:830
T:Reel 830
M:4/4
K:Dmaj
L:1/8
AG|FEDF ECA,D|CB,CE GcAG|FEDF ECA,B,|CB,CD EGFE|FDCD A,B,CD|E|D2FD CA,A,G|FEDF EDCE|AFGA E2D2|A|dcAd FGAF|GFGA BEEG|FDAD FGAd|dABG FDDG|FAAc BGGF|EGBc d2de|fdec dcAB|cAGE FDD|
